assets/illustrations/multisize/40/audiowatermark.svg

<svg id="2819f692-e88a-4523-8c9d-1df8d226bd0b" data-name="ICONS" xmlns="http://www.w3.org/2000/svg" viewBox="0 0 40 40"><title>FileTypeIcons_Master_All_NEW</title><path d="M16,7V30.5127A8.66272,8.66272,0,0,0,9.5,28C5.35791,28,2,30.23877,2,33s3.35791,5,7.5,5S17,35.76123,17,33V8L37,3.4V25.5127A8.66272,8.66272,0,0,0,30.5,23c-4.14209,0-7.5,2.23877-7.5,5s3.35791,5,7.5,5S38,30.76123,38,28V2ZM9.5,37C5.97656,37,3,35.16846,3,33s2.97656-4,6.5-4S16,30.83154,16,33,13.02344,37,9.5,37Zm21-5c-3.52344,0-6.5-1.83154-6.5-4s2.97656-4,6.5-4S37,25.83154,37,28,34.02344,32,30.5,32Z" fill="#949494"/></svg>

<?xml version="1.0" encoding="utf-8"?>
<!-- Generator: Adobe Illustrator 21.1.0, SVG Export Plug-In . SVG Version: 6.00 Build 0)  -->
<svg version="1.1" xmlns="http://www.w3.org/2000/svg" xmlns:xlink="http://www.w3.org/1999/xlink" x="0px" y="0px"
	 viewBox="0 0 40 40" enable-background="new 0 0 40 40" xml:space="preserve">
<g id="TEMPLATE" display="none">
	<g display="inline">
		<path fill="#D0D0D0" d="M40,0v40H0V0H40 M41-1h-1H0h-1v1v40v1h1h40h1v-1V0V-1L41-1z"/>
	</g>
	<g display="inline" opacity="0.1">
		<path fill="#FF3A6D" d="M38,2v36H2V2H38 M40,0H0v40h40V0L40,0z"/>
	</g>
</g>
<g id="ICONS">
	<path fill="#949494" d="M16,7v23.5127C14.7056,29.0127,12.2822,28,9.5,28C5.3579,28,2,30.2388,2,33s3.3579,5,7.5,5
		s7.5-2.2388,7.5-5V8l20-4.6v22.1127C35.7056,24.0127,33.2822,23,30.5,23c-4.1421,0-7.5,2.2388-7.5,5s3.3579,5,7.5,5
		s7.5-2.2388,7.5-5V2L16,7z M9.5,37C5.9766,37,3,35.1685,3,33s2.9766-4,6.5-4s6.5,1.8315,6.5,4S13.0234,37,9.5,37z M30.5,32
		c-3.5234,0-6.5-1.8315-6.5-4s2.9766-4,6.5-4s6.5,1.8315,6.5,4S34.0234,32,30.5,32z"/>
</g>
</svg>
